X:1
T:Hora Fetelor
O:Romania
Z:http://swiss.csail.mit.edu/~jaffer/Music
M:6/8
L:1/8
Q:3/8=100
K:G
V:1 name=panpipes snm=panp
%%MIDI channel 1
%%MIDI program 1 75
D|:D2G-G3 |A2B-B3 |(c3-(4cBA^G) |A3-A2 G |B2c-cc2 |d_ef edc |
 d6 |z3z2D |D2G-G3 |A2B-B3 |(c3-(4cBA^G) |A3-A2 G |
 Bcd cB_A |cB_A AGF |G6 |1 z3 z2D :|2 z2B c2d |
|: _e3-e2d |d3-d2c |Bcd c2B |c2A-A3 |B2c-cc2 |d_ef edc |
 d3 z3 |z2d _e2f |g3-gf2 |(4_e2d2c2B2 |gfe dcB |c2A-Az2 |
 Bcd cB_A |cB_A AGF |1G6 |z2B c2d :|2 G2z D2z |G3z3 ||
V:2 name=cymbalom snm=cymb
%%MIDI channel 1
%%MIDI program 1 75
%%MIDI channel 2
%%MIDI program 2 15
%%MIDI chordprog 42
%%MIDI chordvol 40
%%MIDI bassprog 43
%%MIDI bassvol 60
%%MIDI gchord f3c3
z|:"G"G,2B,D2B, |"F"=F,2CA,2C |"E"E,2B,^G2B, |"Am"A,2CE2C |"Adim7"A,2C_E2C |G2C_E2C |
 "G"G,2B,D2B, |G2B,D2B, |"G"G,2B,D2B, |"F"=F,2CA,2C |"E"E,2B,^G2B, |"Am"A,2CE2C |
 "Adim7"A,2C_E2C |G2C_E2C |"G"G,2B,D2B, |1 G2B,D2B, :|2 G2B,D2B, |
|: "Cm"C2_EG2E |"G"G,2B,D2B, |"E"E,2B,^G2B, |"Am"A,2CE2C |"Adim7"A,2C_E2C |G2C_E2C |
 "G"G,2B,D2B, |G2B,D2B, |"Cm"C2_EG2E |"G"G,2B,D2B, |"E"E,2B,^G2B, |"Am"A,2CE2C |
 "Adim7"A,2C_E2C |G2C_E2C |1"G"G,2B,D2B, |G2B,D2B, :|2 "G"G,2B,D2B, |"G"G3 \
%%MIDI gchordoff
 z3 ||
W:Arrangement Copyright (C) 2001 Voluntocracy.
W:Permission is granted to copy and distribute modified or unmodified versions of this music
W:provided the copyright notice and this permission notice are preserved on all copies and the
W:entire such work is distributed under the terms of a permission notice identical to this one.
